X:300
T: Der Schlaftrunk
N: A0344
O: Europa, Mitteleuropa, Deutschland
N: Freih. von Winnenbergs Reuterlieder. Strassburg 1582 No. 33.
R: Romanze, Ballade, Lied, Trinklied
M: 4/2
L: 1/2
K: F
c2 | ccdc | B2Bd | cABG | F2
c2 | ccdc | B2Bd | cABG | F2z
B | BBG2 | GABB | G2z
A | F2FF | GAG2 | F2z
f | fed2 | c2A2 | BcdB | A3
B | BBG2 | GABB | G2z
A | F2FF | GAG2 | F2z
f | fed2 | c2A2 | BcdB | A4
c2cA | BAG2 | F2

